X:1
T:Etude op. 21 no 17
T:Etude op. 21 no 17
T:Joachim Andersen
C:Joachim Andersen
L:1/8
Q:1/4=132
M:3/4
K:Ab
V:1 treble nm="Flûte" snm="Fl."
V:1
"^Allegretto"!p! A e2!<(! f2 g- |g a2 b2 c'-!<)! |!mf!c' (f'e'c'ba) |!>(! (c'a)(ae)(ec)!>)! | %4
!p! A e2 f2 g- |!<(!g a2 b2 c'-!<)! | c'!mf! (f'e'c'ba) |!>(! (c'a)(af)(fc)!>)! |!p! B f2 g2 =a- | %9
"_cresc."a b2 c'2 d'- |d' =a2 b2!<(! c'- |c' d'2 e'2 _f'-!<)! |!f! f' (e'd'be') =d'- | %13
d' (_d'bgc')!>(! b- |b (gfefd | c!>)!B"_dim."AGFE |!p! A)!<(! e2 f2 g- |g a2!<)! b2 c'- | %18
 c'!mf! (f'e'c'ba) |!>(! (c'a)(ae)(ec)!>)! |!p! A e2!<(! f2 g- |g a2 b2!<)! c'- | %22
c'!mf! (g'f'c'ba) |!<(! (c'a)(af)!<)!(fc) |!f! G g2 =a2 =b- |b c'2 =d'2 e'- |e' f2 b2 a- | %27
a =B2 e2 =d | c g2 _g2 f- |!>(!f =e2 _e2 (=d | c) A2!>)! ^F2 G- |"_dim." G (EGce=d | %32
!p! d) B2 =A2 _A- |A G2 F2 _F- |F!<(! (EGBde!<)! |!>(! gbagfe!>)! |!p! =d) e2 =B2 c- |c g2 f2 _f- | %38
 f!<(! (e=Bcba!<)! | =de"_cresc."_d'c'ba) |!mf! a g2 b2 _g- |!<(!g b2 f2 b- |b _f2 b2 e-!<)! | %43
e b2 =d2 _d- |!f!d (c=Bcgf | =d)(e_d'c'ga | f')(e'=bc')!>(!(d'c' | ga)(_ba=Bc!>)! | %48
!p! d) _B2 =A2 _A- |A G2 F2 _F- |F!<(! (EGBde!<)! |!>(! gbagfe!>)! |!p! =d) e2 =B2 c- | %53
c g2 f2 _f- |f!<(! (e=Bc_ba!<)! | =de"_cresc."_d'c'ba) |!mf! a ^f2 g2 e'- |e' g2 b2 a- | %58
!<(! a (gagf=d!<)! |!>(! =BG_BAGF!>)! |!mf! E) F2 ^F2 G- |G c2 =d2 e- |!<(!e f2 (^fga!<)! | %63
 g"_cresc."^f=f=d=BA | G)!f! g'2 =d'2 f'- |f' e'2 =b2 =d'- |d'!>(! c'2 _b2 a- |a g2 (fe=d!>)! | %68
 !>!a) g2 _g2 f- |f"_dim." =e2 (_e=dc | g) _g2 f2!>(! e- | e =d2 (=B_AG!>)! |!p! c)!<(! d2 =d2 e- | %73
e f2 ^f2 (g!<)! | ^fgc'bg=f |!>(! =e)(_e=d_dcB!>)! |!p! A) e2 f2!<(! g- |g a2 b2 c'-!<)! | %78
 c'!mf! (f'e'c'ba) |!>(! (c'a)(ae)(ec)!>)! |!p! A!<(! e2 f2 g- |g a2 b2 c'-!<)! | %82
c'!mf! (g'f'c'ba) |!>(! (c'a)(af)(fc)!>)! |!p! B f2 g2 =a- | a"_cresc." b2 c'2 d'- | %86
d'!<(! =a2 b2 c'- |c' d'2!<)! e'2!f! _f'- |f' (e'd'be') =d'- |d' (_d'bgc')!>(! b- |b (gfefd!>)! | %91
 c"_dim."BAGFE | A)!p!!<(! e2 f2 g- |g a2 b2 c'-!<)! |c'!mf! (f'e'c'ba) |!>(! (c'a)(ae)(ec)!>)! | %96
 A!mf! _g2 a2!<(! b- |b c'2 d'2 (e'!<)! | f')!f! (a'f'd'ba | bafdBA | B)!ff! a'2 g'2 f'- | %101
f' e'2 =d'2 f'- |f' (e'c'agf | efgabc') | c'!>(! =d2 =a2 b- |b _d2!>)! c'2 b- |b!mf! a2 g2!>(! f- | %107
f _f2 =d2 (e!>)! |B)!p! A2 G2!>(! F- |F _F2 =D2 (E!>)! |!pp! A) e2 f2 g- |"_cresc."g a2 b2 =b- | %112
!<(!b c'2 d'2 =d'- |d' e'2 f'2!<)! g'- |g'!mf! a'2!>(! f'2 e'- | e' c'2 b2 g- |g a2 f2 e-!>)! | %117
e c2"_dim." B2 A- |A z z2 z2 |!p! c'2 z2 z2 |!p! A6- | A2 z2 z2 |] %122

